icons/1_Primary/dmarcian.svg

<svg xmlns="http://www.w3.org/2000/svg" width="1024" height="1024" fill="none">
   <g clip-path="url(#a)">
      <path fill="#98DC9A" d="M512 1024c282.77 0 512-229.23 512-512S794.77 0 512 0 0 229.23 0 512s229.23 512 512 512Z"/>
      <path fill="#fff" d="M618.75 256c1.147 63.687 2.27 127.373 3.37 191.06-17-12.93-38.23-20.31-59.64-19.75H414.64A82.001 82.001 0 0 0 336.47 494c-1.59 9-1.21 18.16-1.25 27.24v55.13c-.118 5.544.176 11.089.88 16.59a76.159 76.159 0 0 0 18.49 40.43c10.08 11.63 23.16 20.92 38 25.3a89.382 89.382 0 0 0 27.33 3.49h163.72c9.932.262 19.853-.832 29.49-3.25 23.48-6.07 43.78-22.06 56.82-42.32a93.179 93.179 0 0 0 14.44-49.3V256.05c-21.873-.033-43.753-.05-65.64-.05ZM611 595.25c-10.81 14.66-28.46 24.51-46.9 24.1H438.82a43.727 43.727 0 0 1-41.34-42.3c-.07-20.87 0-41.75 0-62.62a44.062 44.062 0 0 1 4.17-19.82c5.79-11.49 16.63-20.63 29.31-23.4a37.61 37.61 0 0 1 7.86-.94h128.33c23.33.78 44.74 17.58 52.18 39.52a59.49 59.49 0 0 1 2.89 19.76v32.34A55.798 55.798 0 0 1 611 595.25Zm-33.13 89.28c3.83 12 7 24.16 10.66 36.19-13.54 4.91-27.74 7.74-41.81 10.69-20.92 4.14-42.11 7.22-63.44 8-35.15.83-70.55-2.66-104.53-11.89-27.17-7.42-53.48-18.71-76.59-34.92a167.063 167.063 0 0 1-33.18-30.22 197.84 197.84 0 0 1-24.56-38.85 208.363 208.363 0 0 1-18.95-60.75 157.5 157.5 0 0 1 4.43-63.49c6.59-24 19.06-46.11 35.28-64.87 19.48-22.62 44-40.48 70.47-54.15 29.49-15.24 61.44-25.38 94-31.53a423.019 423.019 0 0 1 79.33-7.12c35.17-.08 70.41 2.87 104.87 10.05.73 17.64.59 35.32 1.16 53-10.65-2.85-21.27-5.88-32.09-8a365.264 365.264 0 0 0-74-7.65 359.168 359.168 0 0 0-95.78 6.83c-25.46 5.49-50.44 14.21-72.78 27.75-18.27 11.06-34.62 25.7-46.28 43.69-14 21.22-20.75 46.79-20.77 72.1-.33 21.16 3.06 42.53 11.15 62.14a132.01 132.01 0 0 0 31.05 45.29c21.45 20.54 48.9 33.78 77.2 42 30.56 8.73 62.54 12.18 94.29 11.08a305.57 305.57 0 0 0 90.84-15.37h.03ZM726.67 659a89.374 89.374 0 0 1-28 15 161.758 161.758 0 0 1-50.89 8.58c-13.64-.23-27.43-2.1-40.18-7.13a57.652 57.652 0 0 1-12.74-6.87 108.922 108.922 0 0 0 32.59-7.58 105.519 105.519 0 0 0 47.87-40.75c3 .24 5.72 1.61 8.69 2 6 1 12.87 1.42 18.16-2.19a90.65 90.65 0 0 0 24.49-28.68c24.66-46.28 3.08-92.83 3.08-92.83-5.52-13.3-7.23-16.85-11.86-24.72a115.293 115.293 0 0 0-26.75-30.55l-.23-.46c-.31-21.17.19-42.36.11-63.53 2.17.62 4 1.94 6 3a206.486 206.486 0 0 1 46.13 35.33 228.733 228.733 0 0 1 6 6.38l.35.4a188.823 188.823 0 0 1 6.88 8.21c8.82 10.79 23.24 29.44 28.8 42.44a149.537 149.537 0 0 1 3.48 7.19C834.6 584.41 726.67 659 726.67 659Z"/>
   </g>
   <defs>
      <clipPath id="a">
         <path fill="#fff" d="M0 0h1024v1024H0z"/>
      </clipPath>
   </defs>
</svg>

<svg width="1024" height="1024" viewBox="0 0 1024 1024" fill="none" xmlns="http://www.w3.org/2000/svg">
<g clip-path="url(#clip0_2_2031)">
<path d="M512 1024C794.77 1024 1024 794.77 1024 512C1024 229.23 794.77 0 512 0C229.23 0 0 229.23 0 512C0 794.77 229.23 1024 512 1024Z" fill="#98DC9A"/>
<path d="M618.75 256C619.897 319.687 621.02 383.373 622.12 447.06C605.12 434.13 583.89 426.75 562.48 427.31H414.64C395.961 427.856 378.03 434.765 363.814 446.893C349.598 459.021 339.951 475.641 336.47 494C334.88 503 335.26 512.16 335.22 521.24V576.37C335.102 581.914 335.396 587.459 336.1 592.96C338.105 607.976 344.543 622.052 354.59 633.39C364.67 645.02 377.75 654.31 392.59 658.69C401.465 661.259 410.684 662.436 419.92 662.18H583.64C593.572 662.442 603.493 661.348 613.13 658.93C636.61 652.86 656.91 636.87 669.95 616.61C679.288 601.854 684.291 584.772 684.39 567.31V256.05C662.517 256.017 640.637 256 618.75 256ZM611 595.25C600.19 609.91 582.54 619.76 564.1 619.35H438.82C427.884 618.757 417.569 614.082 409.914 606.249C402.259 598.416 397.822 587.997 397.48 577.05C397.41 556.18 397.48 535.3 397.48 514.43C397.312 507.589 398.74 500.803 401.65 494.61C407.44 483.12 418.28 473.98 430.96 471.21C433.54 470.621 436.174 470.306 438.82 470.27H567.15C590.48 471.05 611.89 487.85 619.33 509.79C621.4 516.167 622.377 522.848 622.22 529.55V561.89C622.177 573.929 618.241 585.632 611 595.25ZM577.87 684.53C581.7 696.53 584.87 708.69 588.53 720.72C574.99 725.63 560.79 728.46 546.72 731.41C525.8 735.55 504.61 738.63 483.28 739.41C448.13 740.24 412.73 736.75 378.75 727.52C351.58 720.1 325.27 708.81 302.16 692.6C289.791 684.065 278.631 673.9 268.98 662.38C259.312 650.428 251.069 637.39 244.42 623.53C235.03 604.37 228.639 583.881 225.47 562.78C222.611 541.536 224.118 519.931 229.9 499.29C236.49 475.29 248.96 453.18 265.18 434.42C284.66 411.8 309.18 393.94 335.65 380.27C365.14 365.03 397.09 354.89 429.65 348.74C455.81 343.877 482.372 341.493 508.98 341.62C544.15 341.54 579.39 344.49 613.85 351.67C614.58 369.31 614.44 386.99 615.01 404.67C604.36 401.82 593.74 398.79 582.92 396.67C558.578 391.608 533.783 389.045 508.92 389.02C476.831 386.999 444.617 389.297 413.14 395.85C387.68 401.34 362.7 410.06 340.36 423.6C322.09 434.66 305.74 449.3 294.08 467.29C280.08 488.51 273.33 514.08 273.31 539.39C272.98 560.55 276.37 581.92 284.46 601.53C291.521 618.636 302.1 634.067 315.51 646.82C336.96 667.36 364.41 680.6 392.71 688.82C423.27 697.55 455.25 701 487 699.9C517.883 699.397 548.511 694.215 577.84 684.53H577.87ZM726.67 659C718.307 665.632 708.824 670.712 698.67 674C682.275 679.565 665.093 682.462 647.78 682.58C634.14 682.35 620.35 680.48 607.6 675.45C603.081 673.704 598.801 671.396 594.86 668.58C606.049 667.747 617.042 665.19 627.45 661C647.176 652.596 663.874 638.382 675.32 620.25C678.32 620.49 681.04 621.86 684.01 622.25C690.01 623.25 696.88 623.67 702.17 620.06C712.254 612.323 720.597 602.551 726.66 591.38C751.32 545.1 729.74 498.55 729.74 498.55C724.22 485.25 722.51 481.7 717.88 473.83C710.841 462.144 701.784 451.801 691.13 443.28L690.9 442.82C690.59 421.65 691.09 400.46 691.01 379.29C693.18 379.91 695.01 381.23 697.01 382.29C713.975 391.833 729.505 403.728 743.14 417.62C745.173 419.7 747.173 421.827 749.14 424L749.49 424.4C751.857 427.067 754.15 429.803 756.37 432.61C765.19 443.4 779.61 462.05 785.17 475.05C786.417 477.463 787.577 479.86 788.65 482.24C834.6 584.41 726.67 659 726.67 659Z" fill="white"/>
</g>
<defs>
<clipPath id="clip0_2_2031">
<rect width="1024" height="1024" fill="white"/>
</clipPath>
</defs>
</svg>
